X: 1196
T: Kalenin Bedenleri
C: Hüseyin Arsal
O: Turkey
F: http://compmusic.upf.edu/node/140
N: mahur--turku--sofyan--niksarin_fidanlari--tokat
N: makam= mahur
N: form= turku
N: usul= sofyan = 4/4
M: 4/4
L: 1/16
K: C ^9/8f   
Q: 1/4=84
%%MIDI tuningsystem comma53
z2gg g2g2 g2g2 {a}f3e  | efg2 af/g/f2 fge=f dcde  | 
w:  Ka le nin  be den le *  ri    |  Yâr  *  *  yâr  *  *  *  yâr  *  yan *  dım    | 
e2{f}ec d2c/B/c A2c2 cB/c/BA  | GAB2 BGBA AGG2 G2z2  | 
w:  Koy *  ve *  rin  gi *  *  den le ri    |  Ni na nay  ca *  nım  *  ni na nay  nay    | 
Bcd2 d2c/B/c A2c2 cB/c/BA  | GAB2 BGBA AGG2 G4  | 
w:  Koy *  ve rin  gi *  *  den le ri    |  Ni na nay  yâ rim  *  de  ni na nay  nay    | 
z2gg g2g2 g2g2 {a}f3e  | efg2 af/g/fg eee=f dcd2  | 
w:  İ pek  bü rük  bü rün *  müş    |  Yâr  *  yan dım  *  *  *  *  ni na nay  *  nay    | 
e2{f}ec d2c/B/c A2c2 cB/c/BA  | GAB2 BGBA AGG2 G2z2  | 
w:  Nik *  sa *  rın  fi *  *  dan la rı    |  Ni na nay  ca *  nım  *  ni na nay  nay    | 
Bcd2 d2c/B/c A2c2 cB/c/BA  | GAB2 BGBA AGG2 G4  | 
w:  Nik *  sa rın  fi *  *  dan la rı    |  Ni na nay  yâ rim  *  de  ni na nay    | 
Bcdd ddcB AAc2 cB2A  | GAB2 BGBA AGG2 G4  | 
w:  Hop pa  ni na  ni na nay  *  ni na nay  nay    |  Ni na nay  ca *  nım  da  ni na nay  nay    | 
Bcdd ddcB AAc2 cB2A  | GAB2 BGBA AGG2 G4  | 
w:  Hop pa  ni na  ni na nay  *  ni na nay  nay    |  Ni na nay  ca *  nım  da  ni na nay  nay    | 
z2gg g2g2 g2g2 {a}f3e  | efg2 af/g/f2 fge=f dcde  | 
w:  Ka le nin  be den le *  ri    |  Yâr  *  *  yâr  *  *  *  yâr  *  yan *  dım    | 
e2{f}ec d2c/B/c A2c2 cB/c/BA  | GAB2 BGBA AGG2 G2z2  | 
w:  Koy *  ve *  rin  gi *  *  den le ri    |  Ni na nay  ca *  nım  *  ni na nay  nay    | 
Bcd2 d2c/B/c A2c2 cB/c/BA  | GAB2 BGBA AGG2 G4  | 
w:  Koy *  ve rin  gi *  *  den le ri    |  Ni na nay  yâ rim  *  de  ni na nay  nay    | 
z2gg g2g2 g2g2 {a}f3e  | efg2 af/g/fg eee=f dcd2  | 
w:  İ pek  bü rük  bü rün *  müş    |  Yâr  *  yan dım  *  *  *  *  ni na nay  *  nay    | 
e2{f}ec d2c/B/c A2c2 cB/c/BA  | GAB2 BGBA AGG2 G2z2  | 
w:  Nik *  sa *  rın  fi *  *  dan la rı    |  Ni na nay  ca *  nım  *  ni na nay  nay    | 
Bcd2 d2c/B/c A2c2 cB/c/BA  | GAB2 BGBA AGG2 G4  | 
w:  Nik *  sa rın  fi *  *  dan la rı    |  Ni na nay  yâ rim  *  de  ni na nay    | 
Bcdd ddcB AAc2 cB2A  | GAB2 BGBA AGG2 G4  | 
w:  Hop pa  ni na  ni na nay  *  ni na nay  nay    |  Ni na nay  ca *  nım  da  ni na nay  nay    | 
Bcdd ddcB AAc2 cB2A  | GAB2 BGBA AGG2 G4  | 
w:  Hop pa  ni na  ni na nay  *  ni na nay  nay    |  Ni na nay  ca *  nım  da  ni na nay  nay    | 
|


